X:3076
T:Clare polka #2
S:Han Speek, Ir-Trad, 9/97
R:Polka
S:Conor Keane
C:Trad. arr. Conor Keane
M:2/4
L:1/8
K:Ador
|: A2 GE | cd e>d | cA BG | AG E/2F/2G |
A2 GE | cd e>d | cA BG | A2-A z :|
|: ea e>d | ea e>d | cd ef | gf/2g/2 ag |
ea e>d | ea e>d | cA BG | A2-A z :|


